X: 2
T: Brocca, The
C: Liz Carroll
M: 4/4
L: 1/8
R: reel
K: Ador
|: A,2 EA, G,A,B,G, | A,2 DE ABAG | ~E3 F DEFD | GABc BAGF |
EDCE DCB,G, | A,2 DE ABAG | ~E3 F DEFD |[1 GG,B,G, A,B,CD :|[2 GG,B,G, A,B,DF ||
K:Dmaj
|: Addc d2 fd | d2 fd cdec | d2 Ad FdAB | GEED EFGB |
Addc d2 fd | d2 fd cdec | ~d3 A =cAGc |[1 AGED =CDEG :|[2 AGED =CDEC |]
